X:389
T: Wuzhishanshang yingxiongduo
N: C1891
O: China,Guangdong Zhanxian
S: II, 365, 1)]
R: Xiaodiao, Diaosheng]
M: 2/4
L: 1/16
K: D
A2A2A2A2 | A2B2d4 |
e2e2edBd | A2BFA4 |
A2d2B3A | F2FED4 |
D2A2D4 | D2E2F4 |
A2BdF2A2 | B2d4B2 |
A2BdBAF2 | E2z2F2z2 |
A2d2E2F2 | D8

@@@ Tune index: 6944
